packages/kaspersky-hexa-ui-icons/src/iconsSVGs/48/FileShredder.svg

<svg xmlns="http://www.w3.org/2000/svg" width="48" height="48" fill="none" viewBox="0 0 48 48"><path fill="currentColor" fill-rule="evenodd" d="M45 22h-6V6.59L32.41 0H9v22H3c-1.6568 0-3 1.3431-3 3v12c0 1.6569 1.3432 3 3 3h4v-2H3c-.5523 0-1-.4477-1-1v-7h44v7c0 .5523-.4477 1-1 1h-4v2h4c1.6569 0 3-1.3431 3-3V25c0-1.6569-1.3431-3-3-3M33 3.41 35.59 6H33zM11 2h20v6h6v14H11zM2 28v-3c0-.5523.4477-1 1-1h42c.5523 0 1 .4477 1 1v3zm39 7h-2v13h-2V35h-2v13h-2V35h-2v13h-2V35h-2v13h-2V35h-2v13h-2V35h-2v13h-2V35h-2v13h-2V35h-2v13H9V35H7v-2h34zM27 8h-6V6h6zm-12 3h18v2H15zm0 3h18v2H15zm0 3h18v2H15zM4 25h2v2H4zm3 0h2v2H7z" clip-rule="evenodd"/></svg>

<svg width="48" height="48" viewBox="0 0 48 48" fill="none" xmlns="http://www.w3.org/2000/svg">
<path fill-rule="evenodd" clip-rule="evenodd" d="M45 22H39V6.59L32.41 0H9V22H3C1.34315 22 0 23.3431 0 25V37C0 38.6569 1.34315 40 3 40H7V38H3C2.44772 38 2 37.5523 2 37V30H46V37C46 37.5523 45.5523 38 45 38H41V40H45C46.6569 40 48 38.6569 48 37V25C48 23.3431 46.6569 22 45 22ZM33 3.41L35.59 6H33V3.41ZM11 2H31V8H37V22H11V2ZM2 28V25C2 24.4477 2.44772 24 3 24H45C45.5523 24 46 24.4477 46 25V28H2ZM41 35H39V48H37V35H35V48H33V35H31V48H29V35H27V48H25V35H23V48H21V35H19V48H17V35H15V48H13V35H11V48H9V35H7V33H41V35ZM27 8H21V6H27V8ZM15 11H33V13H15V11ZM15 14H33V16H15V14ZM15 17H33V19H15V17ZM4 25H6V27H4V25ZM7 25H9V27H7V25Z"  fill="currentColor"/>
</svg>
